<VTKFile type="StructuredGrid" version="1.0" header_type="UInt64">
  <StructuredGrid WholeExtent="0 3 0 12 0 0">
    <Piece Extent="0 3 0 12 0 0">
      <Points>
        <DataArray type="Float32" Name="Points" NumberOfComponents="3" format="ascii">
       -6.9999999999999951e-02 0.0000000000000000e+00 0.0000000000000000e+00
       -5.2499999999999963e-02 0.0000000000000000e+00 0.0000000000000000e+00
       -1.7499999999999988e-02 0.0000000000000000e+00 0.0000000000000000e+00
       0.0000000000000000e+00 0.0000000000000000e+00 0.0000000000000000e+00
       -6.9697510324630563e-02 2.4652205858371291e-02 0.0000000000000000e+00
       -5.2203013590108226e-02 2.3453341877072903e-02 0.0000000000000000e+00
       -1.7320311936151640e-02 1.9252164406467369e-02 0.0000000000000000e+00
       1.7567337853618969e-04 1.8121063784985569e-02 0.0000000000000000e+00
       -6.7278685675583261e-02 7.3897249284600730e-02 0.0000000000000000e+00
       -4.9830013194277455e-02 7.0295451730043881e-02 0.0000000000000000e+00
       -1.5881665005951416e-02 5.7730783707009507e-02 0.0000000000000000e+00
       1.5806642257722991e-03 5.4335947624606605e-02 0.0000000000000000e+00
       -6.2446861474248605e-02 1.2296433081205110e-01 0.0000000000000000e+00
       -4.5098891749064667e-02 1.1694507606710954e-01 0.0000000000000000e+00
       -1.2998768171924691e-02 9.6131683380173236e-02 0.0000000000000000e+00
       4.3885336164504185e-03 9.0469141232187925e-02 0.0000000000000000e+00
       -5.5213673885947334e-02 1.7173528540642524e-01 0.0000000000000000e+00
       -3.8037150926064897e-02 1.6327762478120791e-01 0.0000000000000000e+00
       -8.6624607221073274e-03 1.3440131198387284e-01 0.0000000000000000e+00
       8.5950601186807196e-03 1.2646632092149268e-01 0.0000000000000000e+00
       -4.5596542121947636e-02 2.2009266117649712e-01 0.0000000000000000e+00
       -2.8681580379712933e-02 2.0917301986524262e-01 0.0000000000000000e+00
       -2.8630171206629855e-03 1.7248416139856398e-01 0.0000000000000000e+00
       1.4193919519100540e-02 1.6227336749353474e-01 0.0000000000000000e+00
       -3.3618626489921644e-02 2.6792000222579787e-01 0.0000000000000000e+00
       -1.7075206780470344e-02 2.5451600509224592e-01 0.0000000000000000e+00
       4.4071715403920389e-03 2.1032287474973024e-01 0.0000000000000000e+00
       2.1176694330878765e-02 1.9783644760094476e-01 0.0000000000000000e+00
       -1.9308772618494396e-02 3.1510212910571350e-01 0.0000000000000000e+00
       -3.2652349713286535e-03 2.9919591608976071e-01 0.0000000000000000e+00
       1.3151871908237281e-02 2.4785866946743995e-01 0.0000000000000000e+00
       2.9532886448809137e-02 2.3310209468257792e-01 0.0000000000000000e+00
       -2.7014419902090525e-03 3.6152541619459683e-01 0.0000000000000000e+00
       1.2698007358348359e-02 3.4310626665052629e-01 0.0000000000000000e+00
       2.3370232478477609e-02 2.8503186015250215e-01 0.0000000000000000e+00
       3.9249932932463927e-02 2.6801728934668584e-01 0.0000000000000000e+00
       1.6163371049801256e-02 4.0707806533489954e-01 0.0000000000000000e+00
       3.0761433858447498e-02 3.8614436841702554e-01 0.0000000000000000e+00
       3.5056655061478842e-02 3.2178235077779571e-01 0.0000000000000000e+00
       5.0313224893681729e-02 3.0252953908180036e-01 0.0000000000000000e+00
       3.7240235609572347e-02 4.5165037506934264e-01 0.0000000000000000e+00
       5.4340985259195174e-02 4.3092812268162839e-01 0.0000000000000000e+00
       5.5000000000000000e-02 3.5999999999999999e-01 0.0000000000000000e+00
       6.5179147593585743e-02 3.3487008397897045e-01 0.0000000000000000e+00
       6.0478393658545682e-02 4.9513500482774114e-01 0.0000000000000000e+00
       7.4999999999999997e-02 4.6000000000000002e-01 0.0000000000000000e+00
       9.6000000000000002e-02 3.7500000000000000e-01 0.0000000000000000e+00
       1.0131202307579011e-01 3.3579999999999999e-01 0.0000000000000000e+00
       7.2890669040851175e-02 5.1643660508502309e-01 0.0000000000000000e+00
       8.4526553896988085e-02 4.7127745381376729e-01 0.0000000000000000e+00
       1.0779832360926192e-01 3.8095915127125579e-01 0.0000000000000000e+00
       1.1943420846539883e-01 3.3579999999999999e-01 0.0000000000000000e+00
        </DataArray>
      </Points>
    </Piece>
  </StructuredGrid>
</VTKFile>
